flaticon/interaction/mail-3.svg

<svg xmlns="http://www.w3.org/2000/svg" width="32" height="32" viewBox="0 0 24 24">
    <path d="M 23.980469 15.210938 C 23.820312 13.546875 22.578125 12.34375 21.023438 12.34375 C 20.050781 12.34375 19.230469 12.933594 18.710938 13.648438 C 18.191406 12.933594 17.375 12.34375 16.398438 12.34375 C 14.847656 12.34375 13.605469 13.546875 13.441406 15.210938 C 13.425781 15.320312 13.382812 15.707031 13.535156 16.3125 C 13.757812 17.207031 14.265625 18.019531 15.011719 18.660156 L 18.710938 21.828125 L 22.414062 18.660156 C 23.15625 18.019531 23.667969 17.207031 23.890625 16.3125 C 24.039062 15.707031 24 15.320312 23.980469 15.210938 Z M 23.101562 16.117188 C 22.917969 16.847656 22.5 17.511719 21.882812 18.042969 L 18.710938 20.757812 L 15.542969 18.042969 C 14.925781 17.511719 14.503906 16.847656 14.324219 16.117188 C 14.203125 15.621094 14.246094 15.34375 14.246094 15.34375 L 14.25 15.300781 C 14.351562 14.234375 15.121094 13.15625 16.402344 13.15625 C 17.289062 13.15625 18.015625 13.890625 18.339844 14.621094 L 18.710938 15.460938 L 19.085938 14.621094 C 19.40625 13.890625 20.132812 13.15625 21.023438 13.15625 C 22.304688 13.15625 23.074219 14.234375 23.179688 15.339844 C 23.179688 15.339844 23.222656 15.621094 23.101562 16.117188 Z M 23.101562 16.117188"/>
    <path d="M 10.320312 11.875 C 10.726562 12.238281 11.261719 12.421875 11.796875 12.421875 C 12.332031 12.421875 12.867188 12.238281 13.273438 11.878906 L 22.78125 3.480469 L 22.78125 10.714844 C 22.78125 10.941406 22.960938 11.121094 23.1875 11.121094 C 23.410156 11.121094 23.59375 10.941406 23.59375 10.714844 L 23.59375 2.578125 C 23.59375 2.578125 23.589844 2.574219 23.589844 2.570312 C 23.589844 2.523438 23.582031 2.480469 23.566406 2.4375 C 23.566406 2.433594 23.5625 2.429688 23.5625 2.429688 C 23.558594 2.417969 23.550781 2.410156 23.546875 2.398438 C 23.53125 2.367188 23.511719 2.335938 23.484375 2.308594 C 23.472656 2.296875 23.464844 2.285156 23.453125 2.277344 C 23.425781 2.253906 23.398438 2.238281 23.367188 2.222656 C 23.355469 2.214844 23.34375 2.207031 23.328125 2.203125 C 23.285156 2.183594 23.238281 2.171875 23.1875 2.171875 L 0.40625 2.171875 C 0.355469 2.171875 0.308594 2.183594 0.265625 2.203125 C 0.25 2.207031 0.238281 2.214844 0.222656 2.222656 C 0.195312 2.238281 0.167969 2.253906 0.140625 2.277344 C 0.128906 2.285156 0.117188 2.296875 0.109375 2.308594 C 0.0820312 2.335938 0.0625 2.367188 0.046875 2.398438 C 0.0429688 2.410156 0.0351562 2.417969 0.03125 2.425781 C 0.03125 2.429688 0.0273438 2.433594 0.0273438 2.433594 C 0.0078125 2.480469 0.00390625 2.523438 0 2.570312 C 0.00390625 2.574219 0 2.578125 0 2.578125 L 0 18.445312 C 0 18.445312 0 18.445312 0 18.449219 C 0 18.492188 0.0078125 18.535156 0.0234375 18.578125 C 0.0234375 18.582031 0.0273438 18.585938 0.03125 18.589844 C 0.0351562 18.605469 0.0429688 18.617188 0.0507812 18.628906 C 0.0664062 18.660156 0.0820312 18.6875 0.105469 18.714844 C 0.117188 18.726562 0.128906 18.734375 0.140625 18.746094 C 0.164062 18.769531 0.191406 18.785156 0.222656 18.800781 C 0.238281 18.808594 0.25 18.816406 0.261719 18.820312 C 0.308594 18.839844 0.355469 18.851562 0.40625 18.851562 L 12.609375 18.851562 C 12.835938 18.851562 13.015625 18.667969 13.015625 18.445312 C 13.015625 18.21875 12.835938 18.039062 12.609375 18.039062 L 1.578125 18.039062 C 3.429688 16.570312 7.597656 13.246094 9.742188 11.363281 Z M 22.109375 2.984375 L 12.730469 11.269531 C 12.214844 11.730469 11.378906 11.730469 10.859375 11.269531 L 10.054688 10.558594 C 10.054688 10.554688 10.050781 10.550781 10.050781 10.546875 C 10.039062 10.535156 10.027344 10.53125 10.015625 10.523438 L 1.480469 2.984375 Z M 0.8125 17.605469 L 0.8125 3.480469 L 9.128906 10.824219 C 6.867188 12.796875 2.476562 16.289062 0.8125 17.605469 Z M 0.8125 17.605469"/>
</svg>

<svg xmlns="http://www.w3.org/2000/svg" width="32" height="32" viewBox="0 0 24 24">
    <path d="M23.98 15.21c-.16-1.663-1.402-2.866-2.957-2.866-.972 0-1.793.59-2.312 1.304-.52-.714-1.336-1.304-2.313-1.304-1.55 0-2.793 1.203-2.957 2.867-.015.11-.058.496.094 1.101.223.895.73 1.708 1.477 2.348l3.699 3.168 3.703-3.168c.742-.64 1.254-1.453 1.477-2.348.148-.605.109-.992.09-1.101zm-.878.907c-.184.73-.602 1.395-1.22 1.926l-3.171 2.715-3.168-2.715c-.617-.531-1.04-1.195-1.219-1.926-.12-.496-.078-.773-.078-.773l.004-.043c.102-1.067.871-2.145 2.152-2.145.887 0 1.614.735 1.938 1.465l.37.84.376-.84c.32-.73 1.047-1.465 1.937-1.465 1.282 0 2.051 1.078 2.157 2.184 0 0 .043.281-.078.777zm0 0"/>
    <path d="M10.32 11.875c.407.363.942.547 1.477.547.535 0 1.07-.184 1.476-.543l9.508-8.399v7.235a.406.406 0 1 0 .813 0V2.578s-.004-.004-.004-.008a.38.38 0 0 0-.024-.132c0-.004-.003-.008-.003-.008-.004-.012-.012-.02-.016-.032a.339.339 0 0 0-.063-.09c-.011-.011-.02-.023-.03-.03a.4.4 0 0 0-.087-.055c-.012-.008-.023-.016-.039-.02a.337.337 0 0 0-.14-.031H.405a.337.337 0 0 0-.14.031c-.016.004-.028.012-.043.02a.5.5 0 0 0-.114.086.339.339 0 0 0-.062.09c-.004.011-.012.019-.016.027 0 .004-.004.008-.004.008A.426.426 0 0 0 0 2.57c.004.004 0 .008 0 .008V18.45c0 .043.008.086.023.13 0 .003.004.007.008.01a.122.122 0 0 0 .02.04.4.4 0 0 0 .054.086c.012.012.024.02.036.031.023.024.05.04.082.055.015.008.027.015.039.02a.37.37 0 0 0 .144.03H12.61a.406.406 0 1 0 0-.812H1.58c1.85-1.469 6.019-4.793 8.163-6.676zm11.79-8.89l-9.38 8.285c-.515.46-1.351.46-1.87 0l-.805-.711c0-.004-.004-.008-.004-.012-.012-.012-.024-.016-.035-.024L1.48 2.984zM.812 17.604V3.48l8.316 7.344C6.867 12.797 2.477 16.29.813 17.605zm0 0"/>
</svg>
